X: 3
T: Out On The Ocean
R: jig
M: 6/8
L: 1/8
K: Amaj
E2c cBA|cec BcB|AFE A2B|cBc BAF|E2c cBA|cec BcB|AFE A2B|1 cAA A2F:|2 cAA Ace||~f3 fec|faf fec|efe ece|a2f ecB|A2B c2e|faf ecB|AFE A2B|1 cAA Ace:|2 cAA A2F||


Tune 108	Setting 21012

